32x32/apps/qtodotxt.svg

<svg xmlns="http://www.w3.org/2000/svg" width="32" height="32" version="1">
 <circle style="opacity:0.2" cx="16" cy="17" r="14"/>
 <circle style="fill:#787784" cx="16" cy="16" r="14"/>
 <path style="opacity:0.2" d="M 15.984375,7.0253906 C 10.470157,7.0253907 6.0000001,11.495546 6,17.009766 c 1e-7,5.514218 4.470157,9.984375 9.984375,9.984375 2.531351,-0.0045 4.966253,-0.971325 6.8125,-2.703125 l 2.847656,2.847656 a 14,14 0 0 0 3.285157,-4.783203 l -3.205079,-3.207031 c 0.158145,-0.702298 0.240256,-1.418801 0.244141,-2.138672 0,-5.51422 -4.470155,-9.9843753 -9.984375,-9.9843754 z m 0,4.9921874 c 2.757109,0 4.992187,2.235077 4.992187,4.992188 0,2.757108 -2.235079,4.992187 -4.992187,4.992187 -2.757109,0 -4.992187,-2.235078 -4.992187,-4.992187 0,-2.757111 2.235078,-4.992188 4.992187,-4.992188 z"/>
 <path style="fill:#f4f4f7" d="M 15.984375,6.0253906 C 10.470157,6.0253907 6.0000001,10.495546 6,16.009766 c 1e-7,5.514218 4.470157,9.984375 9.984375,9.984375 2.531351,-0.0045 4.966253,-0.971325 6.8125,-2.703125 l 2.847656,2.847656 c 1.417084,-1.347476 2.53617,-2.976871 3.285157,-4.783203 l -3.205079,-3.207031 c 0.158145,-0.702298 0.240256,-1.418801 0.244141,-2.138672 0,-5.51422 -4.470155,-9.9843753 -9.984375,-9.9843754 z m 0,4.9921874 c 2.757109,0 4.992187,2.235077 4.992187,4.992188 0,2.757108 -2.235079,4.492234 -4.992187,4.492234 -2.757109,0 -4.992187,-1.735125 -4.992187,-4.492234 0,-2.757111 2.235078,-4.992188 4.992187,-4.992188 z"/>
 <path style="opacity:0.1" d="M 25.017578,6.2910156 15.990234,15.71875 13.166016,12.824219 8.9824219,16.916016 12.947266,20.974609 C 13.802317,21.615528 14.860891,22 16.011719,22 c 1.123805,0 2.157549,-0.3686 3.001953,-0.982422 L 28.625,10.982422 A 14,14 0 0 0 25.017578,6.2910156 Z"/>
 <path style="fill:#94c000" d="M 25.017578 5.2910156 L 15.990234 14.71875 L 13.166016 11.824219 L 8.9824219 15.916016 L 12.947266 19.974609 C 13.802317 20.615528 14.860891 21 16.011719 21 C 17.135524 21 18.169268 20.6314 19.013672 20.017578 L 28.625 9.9824219 A 14 14 0 0 0 25.017578 5.2910156 z"/>
 <path style="fill:#f4f4f7;opacity:0.1" d="M 16 2 A 14 14 0 0 0 2 16 A 14 14 0 0 0 2.0214844 16.585938 A 14 14 0 0 1 16 3 A 14 14 0 0 1 29.978516 16.414062 A 14 14 0 0 0 30 16 A 14 14 0 0 0 16 2 z"/>
</svg>

<svg xmlns="http://www.w3.org/2000/svg" width="32" height="32" version="1"><circle style="opacity:.2" cx="16" cy="17" r="14"/><circle style="fill:#787784" cx="16" cy="16" r="14"/><path style="opacity:.2" d="M15.984 7.025C10.47 7.025 6 11.495 6 17.01c0 5.514 4.47 9.984 9.984 9.984a9.984 9.984 0 0 0 6.813-2.703l2.848 2.848a14 14 0 0 0 3.285-4.784l-3.205-3.207c.158-.702.24-1.418.244-2.138 0-5.514-4.47-9.985-9.985-9.985zm0 4.993a4.992 4.992 0 1 1 0 9.984 4.992 4.992 0 0 1 0-9.984z"/><path style="fill:#f4f4f7" d="M15.984 6.025C10.47 6.025 6 10.495 6 16.01c0 5.514 4.47 9.984 9.984 9.984a9.984 9.984 0 0 0 6.813-2.703l2.848 2.848a14 14 0 0 0 3.285-4.784l-3.205-3.207c.158-.702.24-1.418.244-2.138 0-5.514-4.47-9.985-9.985-9.985zm0 4.993a4.992 4.992 0 0 1 4.993 4.992c0 2.757-2.236 4.492-4.993 4.492s-4.992-1.735-4.992-4.492a4.992 4.992 0 0 1 4.992-4.992z"/><path style="opacity:.1" d="m25.018 6.291-9.028 9.428-2.824-2.895-4.184 4.092 3.965 4.059a5.086 5.086 0 0 0 6.066.043l9.612-10.036a14 14 0 0 0-3.607-4.691z"/><path style="fill:#94c000" d="m25.018 5.291-9.028 9.428-2.824-2.895-4.184 4.092 3.965 4.059a5.086 5.086 0 0 0 6.066.043l9.612-10.036a14 14 0 0 0-3.607-4.691z"/><path style="fill:#f4f4f7;opacity:.1" d="M16 2A14 14 0 0 0 2 16a14 14 0 0 0 .021.586A14 14 0 0 1 16 3a14 14 0 0 1 13.979 13.414A14 14 0 0 0 30 16 14 14 0 0 0 16 2z"/></svg>
